X: 16
T:The Hag with the Money
M:6/8
L:1/8
S:Dermy Diamond, Belfast (fiddle)
R:Jig
D:Private tape - Belfast 198?
N:As played
H:Note the first part has a sharp C, unlike the usual version
Z:Bernie Stocks
K:D
Edc AcA | AGE ~G3 | Edc AcA | GEG {A}GED |Edc AcA | AGE GAB|AEA cdd | {e}dcA GAB ::\
ABc d2e | fed edc | (3.A.B.AA dcd |eaa gfe | ABc d2e | {g}f2d efg | age cdd | {e}dcA GAB :|
<end>
<start>
